styles/2/Numix/128/places/default-folder-system.svg

<?xml version="1.0" encoding="UTF-8" standalone="no"?>
<svg
   xmlns:dc="http://purl.org/dc/elements/1.1/"
   xmlns:cc="http://creativecommons.org/ns#"
   xmlns:rdf="http://www.w3.org/1999/02/22-rdf-syntax-ns#"
   xmlns:svg="http://www.w3.org/2000/svg"
   xmlns="http://www.w3.org/2000/svg"
   xmlns:sodipodi="http://sodipodi.sourceforge.net/DTD/sodipodi-0.dtd"
   xmlns:inkscape="http://www.inkscape.org/namespaces/inkscape"
   width="128px"
   height="128px"
   viewBox="0 0 128 128"
   version="1.1"
   id="svg27290"
   inkscape:version="0.91 r"
   sodipodi:docname="default-folder-system.svg">
  <metadata
     id="metadata27303">
    <rdf:RDF>
      <cc:Work
         rdf:about="">
        <dc:format>image/svg+xml</dc:format>
        <dc:type
           rdf:resource="http://purl.org/dc/dcmitype/StillImage" />
      </cc:Work>
    </rdf:RDF>
  </metadata>
  <defs
     id="defs27301" />
  <sodipodi:namedview
     pagecolor="#ffffff"
     bordercolor="#666666"
     borderopacity="1"
     objecttolerance="10"
     gridtolerance="10"
     guidetolerance="10"
     inkscape:pageopacity="0"
     inkscape:pageshadow="2"
     inkscape:window-width="640"
     inkscape:window-height="480"
     id="namedview27299" />
  <g
     id="surface1">
    <path
       style=" stroke:none;fill-rule:nonzero;fill:rgb(91.372549%,69.019608%,50.196078%);fill-opacity:1;"
       d="M 18 16 C 15.070312 16 12 19.023438 12 22 L 12 24 L 6 24 C 3.058594 24 0 26.992188 0 30 L 0 106 C 0 110 2 112 6 112 L 122 112 C 125.136719 112 128 109.285156 128 106 L 128 40 C 128 36.988281 125.089844 34 122 34 L 116 34 L 116 22 C 116 19.078125 113.09375 16 110 16 Z M 18 16 "
       id="path27293" />
    <path
       style=" stroke:none;fill-rule:nonzero;fill:rgb(0%,0%,0%);fill-opacity:0.321569;"
       d="M 18 16 C 15.070312 16 12 19.023438 12 22 L 12 24 L 6 24 C 3.058594 24 0 26.992188 0 30 L 0 106 C 0 110 2 112 6 112 L 122 112 C 125.136719 112 128 109.285156 128 106 L 128 40 C 128 36.988281 125.089844 34 122 34 L 116 34 L 116 22 C 116 19.078125 113.09375 16 110 16 Z M 6 28 L 74 28 C 75.179688 28 76 29.03125 76 30 L 76 38 L 122 38 C 123.011719 38 124 39.015625 124 40 L 124 106 C 124 107.042969 123.042969 108 122 108 L 6 108 C 5.070312 108 4 107.207031 4 106 L 4 30 C 4 29.015625 5.03125 28 6 28 Z M 6 28 "
       id="path27295" />
    <path
       style=" stroke:none;fill-rule:nonzero;fill:rgb(0%,0%,0%);fill-opacity:0.321569;"
       d="M 60.222656 50 C 58.890625 50 57.777344 51.058594 57.777344 52.390625 L 57.777344 55.5 C 56.9375 55.785156 56.121094 56.109375 55.332031 56.5 L 53.167969 54.332031 C 52.226562 53.390625 50.71875 53.390625 49.777344 54.332031 L 44.332031 59.722656 C 43.390625 60.664062 43.390625 62.171875 44.332031 63.109375 L 46.5 65.277344 C 46.101562 66.078125 45.789062 66.921875 45.5 67.777344 L 42.445312 67.777344 C 41.113281 67.777344 40 68.835938 40 70.167969 L 40 77.832031 C 40 79.164062 41.113281 80.222656 42.445312 80.222656 L 45.5 80.222656 C 45.789062 81.078125 46.101562 81.921875 46.5 82.722656 L 44.332031 84.890625 C 43.390625 85.832031 43.390625 87.335938 44.332031 88.277344 L 49.777344 93.667969 C 50.71875 94.609375 52.226562 94.609375 53.167969 93.667969 L 55.332031 91.5 C 56.121094 91.890625 56.9375 92.21875 57.777344 92.5 L 57.777344 95.609375 C 57.777344 96.941406 58.890625 98 60.222656 98 L 67.832031 98 C 69.164062 98 70.222656 96.941406 70.222656 95.609375 L 70.222656 92.5 C 71.078125 92.210938 71.921875 91.898438 72.722656 91.5 L 74.890625 93.667969 C 75.832031 94.609375 77.335938 94.609375 78.277344 93.667969 L 83.722656 88.277344 C 84.664062 87.335938 84.664062 85.828125 83.722656 84.890625 L 81.5 82.667969 C 81.890625 81.878906 82.21875 81.0625 82.5 80.222656 L 85.609375 80.222656 C 86.941406 80.222656 88 79.164062 88 77.832031 L 88 70.167969 C 88 68.835938 86.941406 67.777344 85.609375 67.777344 L 82.5 67.777344 C 82.21875 66.9375 81.890625 66.121094 81.5 65.332031 L 83.722656 63.109375 C 84.664062 62.167969 84.664062 60.664062 83.722656 59.722656 L 78.277344 54.332031 C 77.335938 53.390625 75.828125 53.390625 74.890625 54.332031 L 72.722656 56.5 C 71.921875 56.101562 71.078125 55.789062 70.222656 55.5 L 70.222656 52.390625 C 70.222656 51.058594 69.164062 50 67.832031 50 Z M 64 67.777344 C 67.433594 67.777344 70.222656 70.566406 70.222656 74 C 70.222656 77.433594 67.433594 80.222656 64 80.222656 C 60.566406 80.222656 57.777344 77.433594 57.777344 74 C 57.777344 70.566406 60.566406 67.777344 64 67.777344 Z M 64 67.777344 "
       id="path27297" />
  </g>
</svg>

<svg xmlns="http://www.w3.org/2000/svg" viewBox="0 0 128 128">
 <g>
  <path d="m 18 16 c -2.93 0 -6 3.02 -6 6 l 0 2 l -6 0 c -2.941 0 -6 2.992 -6 6 l 0 76 c 0 4 2 6 6 6 l 116 0 c 3.137 0 6 -2.715 6 -6 l 0 -66 c 0 -3.01 -2.91 -6 -6 -6 l -6 0 l 0 -12 c 0 -2.922 -2.906 -6 -6 -6 m -92 0" style="fill:#e8b07f;fill-opacity:1;stroke:none;fill-rule:nonzero"/>
  <path d="m 18 16 c -2.93 0 -6 3.02 -6 6 l 0 2 l -6 0 c -2.941 0 -6 2.992 -6 6 l 0 76 c 0 4 2 6 6 6 l 116 0 c 3.137 0 6 -2.715 6 -6 l 0 -66 c 0 -3.01 -2.91 -6 -6 -6 l -6 0 l 0 -12 c 0 -2.922 -2.906 -6 -6 -6 m -104 12 l 68 0 c 1.18 0 2 1.031 2 2 l 0 8 l 46 0 c 1.012 0 2 1.016 2 2 l 0 66 c 0 1.043 -0.957 2 -2 2 l -116 0 c -0.93 0 -2 -0.793 -2 -2 l 0 -76 c 0 -0.984 1.031 -2 2 -2 m 0 0" style="fill:#000;fill-opacity:0.322;stroke:none;fill-rule:nonzero"/>
  <path d="m 60.22 50 c -1.332 0 -2.445 1.059 -2.445 2.391 l 0 3.109 c -0.84 0.285 -1.656 0.609 -2.445 1 l -2.164 -2.168 c -0.941 -0.941 -2.449 -0.941 -3.391 0 l -5.445 5.391 c -0.941 0.941 -0.941 2.449 0 3.387 l 2.168 2.168 c -0.398 0.801 -0.711 1.645 -1 2.5 l -3.055 0 c -1.332 0 -2.445 1.059 -2.445 2.391 l 0 7.664 c 0 1.332 1.113 2.391 2.445 2.391 l 3.055 0 c 0.289 0.855 0.602 1.699 1 2.5 l -2.168 2.168 c -0.941 0.941 -0.941 2.445 0 3.387 l 5.445 5.391 c 0.941 0.941 2.449 0.941 3.391 0 l 2.164 -2.168 c 0.789 0.391 1.605 0.719 2.445 1 l 0 3.109 c 0 1.332 1.113 2.391 2.445 2.391 l 7.609 0 c 1.332 0 2.391 -1.059 2.391 -2.391 l 0 -3.109 c 0.855 -0.289 1.699 -0.602 2.5 -1 l 2.168 2.168 c 0.941 0.941 2.445 0.941 3.387 0 l 5.445 -5.391 c 0.941 -0.941 0.941 -2.449 0 -3.387 l -2.223 -2.223 c 0.391 -0.789 0.719 -1.605 1 -2.445 l 3.109 0 c 1.332 0 2.391 -1.059 2.391 -2.391 l 0 -7.664 c 0 -1.332 -1.059 -2.391 -2.391 -2.391 l -3.109 0 c -0.281 -0.84 -0.609 -1.656 -1 -2.445 l 2.223 -2.223 c 0.941 -0.941 0.941 -2.445 0 -3.387 l -5.445 -5.391 c -0.941 -0.941 -2.449 -0.941 -3.387 0 l -2.168 2.168 c -0.801 -0.398 -1.645 -0.711 -2.5 -1 l 0 -3.109 c 0 -1.332 -1.059 -2.391 -2.391 -2.391 m -3.832 17.777 c 3.434 0 6.223 2.789 6.223 6.223 c 0 3.434 -2.789 6.223 -6.223 6.223 c -3.434 0 -6.223 -2.789 -6.223 -6.223 c 0 -3.434 2.789 -6.223 6.223 -6.223 m 0 0" style="fill:#000;fill-opacity:0.322;stroke:none;fill-rule:nonzero"/>
 </g>
</svg>
